Flat-Remix-Dark/apps/scalable/preferences-system-brightness-lock.svg

<svg xmlns="http://www.w3.org/2000/svg" xmlns:xlink="http://www.w3.org/1999/xlink" width="384pt" height="384pt" version="1.1" viewBox="0 0 384 384"> <defs> <filter id="alpha" width="100%" height="100%" x="0%" y="0%" filterUnits="objectBoundingBox"> <feColorMatrix in="SourceGraphic" type="matrix" values="0 0 0 0 1 0 0 0 0 1 0 0 0 0 1 0 0 0 1 0"/> </filter> <mask id="mask0"> <g filter="url(#alpha)"> <rect width="384" height="384" x="0" y="0" style="fill:rgb(0%,0%,0%);fill-opacity:0.2"/> </g> </mask> <clipPath id="clip1"> <rect width="384" height="384" x="0" y="0"/> </clipPath> <g id="surface5" clip-path="url(#clip1)"> <path style="fill:rgb(0%,0%,0%)" d="M 191.4375 96.75 C 138.417969 96.75 95.4375 139.730469 95.4375 192.75 C 95.4375 245.769531 138.417969 288.75 191.4375 288.75 Z M 191.4375 96.75"/> </g> <mask id="mask1"> <g filter="url(#alpha)"> <rect width="384" height="384" x="0" y="0" style="fill:rgb(0%,0%,0%);fill-opacity:0.101961"/> </g> </mask> <clipPath id="clip2"> <rect width="384" height="384" x="0" y="0"/> </clipPath> <g id="surface8" clip-path="url(#clip2)"> <path style="fill:rgb(100.000%,100.000%,100.000%)" d="M 192.1875 17.25 C 174.480469 34.722656 157.53125 54.617188 139.617188 72 L 72.1875 72 L 72.1875 78 L 139.617188 78 C 157.53125 60.617188 174.480469 40.722656 192.1875 23.25 C 209.898438 40.722656 227.519531 60.613281 245.484375 78 L 312.1875 78 L 312.1875 72 L 245.484375 72 C 227.519531 54.613281 209.898438 34.722656 192.1875 17.25 Z M 72.1875 139.429688 C 54.800781 157.34375 34.914062 174.292969 17.4375 192 C 18.425781 193 19.484375 194 20.53125 195 C 37.25 178.382812 55.796875 162.332031 72.1875 145.441406 Z M 312.1875 139.429688 L 312.1875 145.441406 C 328.578125 162.332031 347.136719 178.382812 363.855469 195 C 364.898438 194 365.953125 193 366.9375 192 C 349.464844 174.292969 329.574219 157.34375 312.1875 139.429688 Z M 312.1875 139.429688"/> </g> </defs> <path style="opacity:0.3" d="M 192,24.753911 C 174.28907,42.226566 157.34376,62.121098 139.4297,79.50391 H 72.000006 v 67.42968 c -17.386723,17.91407 -37.273442,34.85937 -54.750003,52.57032 17.472655,17.70702 37.36328,35.3242 54.750003,53.29296 v 66.70312 H 139.4297 c 17.91406,17.38672 34.86327,37.27344 52.5703,54.75 17.70704,-17.47266 35.32812,-37.36328 53.29688,-54.75 H 312 v -66.72655 c 17.38672,-17.96486 37.27734,-35.56641 54.75,-53.26953 C 349.27734,181.79687 329.38672,164.84766 312,146.93359 V 79.50391 H 245.29688 C 227.33204,62.113285 209.71875,42.22266 192.00392,24.750005 Z m 0,102.749999 c -39.76171,0 -71.99999,32.23437 -71.99999,72 0,39.76171 32.23828,71.99608 71.99999,71.99608 z m 0,0"/> <g> <path style="fill:rgb(20.000%,20.000%,20.000%)" d="M 191.8125 17.253906 C 174.101562 34.726562 157.15625 54.621094 139.242188 72.003906 L 71.8125 72.003906 L 71.8125 139.433594 C 54.425781 157.347656 34.539062 174.292969 17.0625 192.003906 C 34.535156 209.710938 54.425781 227.328125 71.8125 245.296875 L 71.8125 312 L 139.242188 312 C 157.15625 329.386719 174.105469 349.273438 191.8125 366.75 C 209.519531 349.277344 227.140625 329.386719 245.109375 312 L 311.8125 312 L 311.8125 245.273438 C 329.199219 227.308594 349.089844 209.707031 366.5625 192.003906 C 349.089844 174.296875 329.199219 157.347656 311.8125 139.433594 L 311.8125 72.003906 L 245.109375 72.003906 C 227.144531 54.613281 209.53125 34.722656 191.816406 17.25 Z M 191.8125 120.003906 C 152.050781 120.003906 119.8125 152.238281 119.8125 192.003906 C 119.8125 231.765625 152.050781 264 191.8125 264 Z M 191.8125 120.003906"/> <use mask="url(#mask0)" xlink:href="#surface5"/> <path style="fill:rgb(100.000%,100.000%,100.000%)" d="M 191.4375 90.75 C 138.417969 90.75 95.4375 133.730469 95.4375 186.75 C 95.4375 239.769531 138.417969 282.75 191.4375 282.75 Z M 191.4375 90.75"/> <use mask="url(#mask1)" xlink:href="#surface8"/> </g> </svg>

<svg width="512" height="512" version="1.1" viewBox="0 0 384 384" xmlns="http://www.w3.org/2000/svg"><defs><clipPath id="c"><rect width="384" height="384"/></clipPath></defs><path d="m192 24.754c-17.711 17.473-34.656 37.367-52.57 54.75h-67.43v67.43c-17.387 17.914-37.273 34.859-54.75 52.57 17.473 17.707 37.363 35.324 54.75 53.293v66.703h67.43c17.914 17.387 34.863 37.273 52.57 54.75 17.707-17.473 35.328-37.363 53.297-54.75h66.703v-66.727c17.387-17.965 37.277-35.566 54.75-53.27-17.473-17.707-37.363-34.656-54.75-52.57v-67.43h-66.703c-17.965-17.391-35.578-37.281-53.293-54.754zm0 102.75c-39.762 0-72 32.234-72 72 0 39.762 32.238 71.996 72 71.996z" opacity=".3"/><path d="m191.81 17.254c-17.711 17.473-34.656 37.367-52.57 54.75h-67.43v67.43c-17.387 17.914-37.273 34.859-54.75 52.57 17.473 17.707 37.363 35.324 54.75 53.293v66.703h67.43c17.914 17.387 34.863 37.273 52.57 54.75 17.707-17.473 35.328-37.363 53.297-54.75h66.703v-66.727c17.387-17.965 37.277-35.566 54.75-53.27-17.473-17.707-37.363-34.656-54.75-52.57v-67.43h-66.703c-17.965-17.391-35.578-37.281-53.293-54.754zm0 102.75c-39.762 0-72 32.234-72 72 0 39.762 32.238 71.996 72 71.996z" fill="#333"/><path d="m191.44 98.25c-53.02 0-96 42.98-96 96s42.98 96 96 96z" opacity=".5"/><path d="m191.44 90.75c-53.02 0-96 42.98-96 96s42.98 96 96 96z" fill="#fff"/></svg>
